Papirus/64x64/apps/borderlands-the-pre-sequel.svg

<svg width="64" height="64" version="1" xmlns="http://www.w3.org/2000/svg">
 <rect transform="scale(-1,1)" x="-60" y="5" width="56" height="56" rx="28" ry="28" style="opacity:.2"/>
 <rect transform="scale(-1,1)" x="-60" y="4" width="56" height="56" rx="28" ry="28" style="fill:#5f89c9"/>
 <path d="m27.435642 11.483845c2.322468-0.49777 4.749114-0.614017 7.119638-0.336917 3.439922 0.402057 6.770672 1.630054 9.661684 3.561604 2.857866 1.909238 5.20462 4.426274 6.895848 7.393124 0.647983 1.136666 1.20051 2.349432 1.641699 3.606658 0.308401 0.879704 0.589979 1.8975 0.78293 2.823122 1.003088 4.8223 0.365606 9.795244-1.823661 14.216432-0.15813 0.31919-0.16287 0.328158-0.176772 0.32044-0.01518-0.0066-0.08687-0.1095-1.105479-1.547214-3.836247-5.41459-9.017553-12.79997-15.094419-21.50868-1.85198-2.653932-2.365314-3.388075-2.45825-3.527093-0.576378-0.862479-1.166008-1.496204-1.829472-1.965095-0.15918-0.112242-0.54938-0.335379-0.722678-0.412983-0.7984-0.357701-1.64342-0.462953-2.591362-0.319414-0.261966 0.03965-0.42951 0.07567-0.727882 0.1556-0.298374 0.07991-0.461548 0.132742-0.708186 0.229085-0.89274 0.349514-1.574476 0.863767-2.086886 1.5726-0.11126 0.153888-0.337838 0.542193-0.41931 0.718893-0.34006 0.737712-0.533608 1.580799-0.601548 2.616303-0.02678 0.401858-0.400822 4.687406-0.684686 7.843002-0.441932 4.91252-0.868488 9.457748-1.596124 16.986138-0.367974 3.806128-0.587314 6.09658-0.685358 7.144706-0.02268 0.246476-0.04408 0.454444-0.047 0.461612-0.0088 0.0174-0.0142 0.0158-0.1887-0.0965-1.058626-0.680848-2.119096-1.506926-3.057472-2.381884-2.419242-2.255624-4.280762-5.029406-5.465942-8.143776-0.291438-0.766238-0.485464-1.370266-0.709142-2.204812-0.1357-0.506302-0.1919-0.773072-0.287932-1.201656-0.879884-4.187978-0.517664-8.515004 1.04859-12.512084 0.638028-1.627974 1.49065-3.21222 2.500434-4.645328 2.735282-3.881723 6.610642-6.751794 11.107142-8.224387 0.718178-0.235134 1.563896-0.462021 2.310286-0.621485zm0.600744 5.85751c1.663676-0.172874 2.72948 1.002236 3.639104 2.239205 4.306714 7.456906 8.897572 15.532782 13.556423 23.845414 1.339692 2.390322 2.652613 4.742254 2.657475 4.760392 4e-3 0.0148-0.05345 0.07898-0.282195 0.309294-2.625601 2.646722-5.873415 4.572008-9.461779 5.612064-0.448472 0.1295-0.440048 0.12684-0.86262 0.231072-0.976474 0.239792-1.830618 0.398644-2.765726 0.509794-2.779782 0.330402-5.56919 0.11934-8.278678-0.626136-0.10744-0.02954-0.1977-0.0597-0.201094-0.06432-0.0024-0.0088-0.0182-0.72432-0.05006-3.048326-0.12428-9.073282-0.19386-18.466736-0.20412-27.47662 0.14656-2.714306 0.0156-5.540825 2.253286-6.291857z" style="opacity:.2"/>
 <path d="m27.435642 10.483845c2.322468-0.4977704 4.749114-0.614017 7.119638-0.336917 3.439922 0.402057 6.770672 1.630054 9.661684 3.561604 2.857866 1.909238 5.20462 4.426274 6.895848 7.393124 0.647983 1.136666 1.20051 2.349432 1.641699 3.606658 0.308401 0.879704 0.589979 1.8975 0.78293 2.823122 1.003088 4.8223 0.365606 9.795244-1.823661 14.216432-0.15813 0.31919-0.16287 0.328158-0.176772 0.32044-0.01518-0.0066-0.08687-0.1095-1.105479-1.547214-3.836247-5.41459-9.017553-12.79997-15.094419-21.508679-1.85198-2.653933-2.365314-3.388076-2.45825-3.527094-0.576378-0.862479-1.166008-1.496204-1.829472-1.965095-0.15918-0.112242-0.54938-0.335379-0.722678-0.412983-0.7984-0.357701-1.64342-0.462953-2.591362-0.319414-0.261966 0.03965-0.42951 0.07567-0.727882 0.1556-0.298374 0.07991-0.461548 0.132742-0.708186 0.229085-0.89274 0.349514-1.574476 0.863767-2.086886 1.5726-0.11126 0.153888-0.337838 0.542193-0.41931 0.718893-0.34006 0.737712-0.533608 1.580799-0.601548 2.616303-0.02678 0.401858-0.400822 4.687406-0.684686 7.843002-0.441932 4.91252-0.868488 9.457748-1.596124 16.986138-0.367974 3.806128-0.587314 6.09658-0.685358 7.144706-0.02268 0.246476-0.04408 0.454444-0.047 0.461612-0.0088 0.0174-0.0142 0.0158-0.1887-0.0965-1.058626-0.680848-2.119096-1.506926-3.057472-2.381884-2.419242-2.255624-4.280762-5.029406-5.465942-8.143776-0.291438-0.766238-0.485464-1.370266-0.709142-2.204812-0.1357-0.506302-0.1919-0.773072-0.287932-1.201656-0.879884-4.187978-0.517664-8.515004 1.04859-12.512084 0.638028-1.627974 1.49065-3.21222 2.500434-4.645328 2.735282-3.881723 6.610642-6.751794 11.107142-8.224387 0.718178-0.235134 1.563896-0.462021 2.310286-0.621485zm0.600744 5.85751c1.663676-0.172874 2.72948 1.002236 3.639104 2.239205 4.306714 7.456906 8.897572 15.532782 13.556423 23.845414 1.339692 2.390322 2.652613 4.742254 2.657475 4.760392 4e-3 0.0148-0.05345 0.07898-0.282195 0.309294-2.625601 2.646722-5.873415 4.572008-9.461779 5.612064-0.448472 0.1295-0.440048 0.12684-0.86262 0.231072-0.976474 0.239792-1.830618 0.398644-2.765726 0.509794-2.779782 0.330402-5.56919 0.11934-8.278678-0.626136-0.10744-0.02954-0.1977-0.0597-0.201094-0.06432-0.0024-0.0088-0.0182-0.72432-0.05006-3.048326-0.12428-9.073282-0.19386-18.466736-0.20412-27.47662 0.14656-2.714307 0.0156-5.540825 2.253286-6.291857z" style="fill:#f7b400"/>
 <path d="m 32,4 c 15.512,0 28,12.488 28,28 0,0.11345 -0.01128,0.224113 -0.01758,0.335938 C 59.630879,17.134181 47.289272,5 32,5 16.710728,5 4.369121,17.134181 4.017578,32.335938 4.01128,32.224113 4,32.11345 4,32 4,16.488 16.488,4 32,4 Z" style="fill:#ffffff;opacity:.1"/>
 <path d="m31.425781 10.007812c0.447769-0.012291 0.895894-0.011312 1.34375 0.0039 0.59714 0.02029 1.192525 0.06744 1.785157 0.136719 3.439921 0.402058 6.77305 1.627044 9.664062 3.558593 2.857866 1.909239 5.203303 4.427682 6.894531 7.394531 0.647983 1.136667 1.199437 2.348243 1.640625 3.605469 0.308402 0.879704 0.592206 1.898597 0.785156 2.824219 0.336134 1.615948 0.473307 3.249467 0.44336 4.873047-0.03449-1.292788-0.17621-2.588739-0.44336-3.873047-0.19295-0.925622-0.476754-1.944515-0.785156-2.824219-0.441188-1.257226-0.992642-2.468803-1.640625-3.605469-1.691228-2.96685-4.036665-5.485292-6.894531-7.394531-2.891012-1.931549-6.224141-3.156535-9.664062-3.558593-0.592632-0.06928-1.188017-0.116429-1.785157-0.136719-1.791426-0.06087-3.590181 0.09933-5.332031 0.472656-0.74639 0.159464-1.594322 0.38596-2.3125 0.621094-4.4965 1.472593-8.370187 4.340933-11.105469 8.222656-1.009784 1.433109-1.861972 3.020463-2.5 4.648437-0.944499 2.41036-1.437494 4.940997-1.496093 7.488282-0.064707-2.883827 0.427999-5.76251 1.496093-8.488282 0.638028-1.627974 1.490216-3.215328 2.5-4.648437 2.735282-3.881723 6.608969-6.750063 11.105469-8.222656 0.718178-0.235134 1.56611-0.46163 2.3125-0.621094 1.306387-0.279996 2.644974-0.439687 3.988281-0.476563zm-2.792969 6.328126c1.330973 0.126021 2.247047 1.163745 3.042969 2.246093 4.306714 7.456907 8.895837 15.531118 13.554688 23.84375 1.339691 2.390322 2.655294 4.743581 2.660156 4.761719 4e-3 0.0148-0.05641 0.07828-0.285156 0.308594-0.02156 0.02173-0.04596 0.03989-0.06836 0.06055-0.286081-0.517792-1.144569-2.057453-2.30664-4.13086-4.658851-8.312632-9.247974-16.386843-13.554688-23.84375-0.795922-1.082348-1.711996-2.120072-3.042969-2.246093-0.190137-0.01801-0.389696-0.0177-0.597656 0.0039-2.204228 0.739796-2.111258 3.49532-2.248047 6.171875-0.0027-0.294994-0.0055-0.590704-0.0059-0.878907 0.14656-2.714306 0.0162-5.541936 2.253906-6.292968 0.20796-0.02161 0.407519-0.02192 0.597656-0.0039z" style="fill:#ffffff;opacity:.2"/>
</svg>

<svg xmlns="http://www.w3.org/2000/svg" width="64" height="64" version="1">
 <circle style="opacity:0.2" cx="32" cy="33" r="28"/>
 <circle style="fill:#5f89c9" cx="32" cy="32" r="28"/>
 <path style="opacity:0.2;fill:#ffffff" d="M 32 4 A 28 28 0 0 0 4 32 A 28 28 0 0 0 4.0215 32.586 A 28 28 0 0 1 32 5 A 28 28 0 0 1 59.979 32.414 A 28 28 0 0 0 60 32 A 28 28 0 0 0 32 4 z"/>
 <path style="opacity:0.2" d="M 27.436,11.484 C 29.758,10.986 32.185,10.87 34.555,11.147 37.995,11.549 41.326,12.777 44.217,14.709 47.075,16.618 49.422,19.135 51.113,22.102 51.761,23.238 52.313,24.451 52.755,25.708 53.063,26.588 53.344,27.606 53.537,28.531 54.541,33.354 53.903,38.327 51.714,42.748 L 51.537,43.068 C 51.537,43.068 32.972,16.624 32.879,16.485 32.302,15.623 31.713,14.989 31.049,14.52 30.89,14.408 30.5,14.185 30.327,14.107 29.528,13.75 28.683,13.644 27.735,13.788 27.076,13.886 26.879,13.945 26.299,14.173 25.407,14.522 24.725,15.036 24.212,15.745 24.101,15.899 23.875,16.287 23.793,16.464 23.453,17.202 23.259,18.045 23.192,19.08 L 20.178,51.516 19.99,51.419 C 18.931,50.738 17.871,49.912 16.932,49.037 14.513,46.782 12.651,44.008 11.466,40.894 11.175,40.127 10.565,37.916 10.469,37.487 9.5893,33.299 9.9515,28.972 11.518,24.975 12.156,23.347 13.008,21.763 14.018,20.33 16.753,16.448 20.629,13.578 25.125,12.105 25.844,11.87 26.689,11.643 27.436,11.484 Z M 28.036,17.341 C 29.7,17.168 30.766,18.344 31.675,19.581 35.982,27.037 40.573,35.113 45.232,43.426 46.572,45.816 47.885,48.168 47.889,48.186 47.893,48.201 47.836,48.265 47.607,48.496 44.982,51.142 41.734,53.068 38.145,54.108 37.325,54.344 35.965,54.676 34.517,54.849 31.737,55.179 28.948,54.968 26.238,54.222 L 26.037,54.158 25.783,23.633 C 25.93,20.919 25.799,18.092 28.036,17.341 Z"/>
 <path style="fill:#f7b400" d="M 27.436,10.484 C 29.758,9.9861 32.185,9.8698 34.555,10.147 37.995,10.549 41.326,11.777 44.217,13.709 47.075,15.618 49.422,18.135 51.113,21.102 51.761,22.238 52.313,23.451 52.755,24.708 53.063,25.588 53.344,26.606 53.537,27.531 54.541,32.354 53.903,37.327 51.714,41.748 L 51.537,42.068 C 51.537,42.068 32.972,15.624 32.879,15.485 32.302,14.623 31.713,13.989 31.049,13.52 30.89,13.408 30.5,13.185 30.327,13.107 29.528,12.75 28.683,12.644 27.735,12.788 27.076,12.886 26.879,12.945 26.299,13.173 25.407,13.522 24.725,14.036 24.212,14.745 24.101,14.899 23.875,15.287 23.793,15.464 23.453,16.202 23.259,17.045 23.192,18.08 L 20.178,50.516 19.99,50.419 C 18.931,49.738 17.871,48.912 16.932,48.037 14.513,45.782 12.651,43.008 11.466,39.894 11.175,39.127 10.565,36.916 10.469,36.487 9.5893,32.299 9.9515,27.972 11.518,23.975 12.156,22.347 13.008,20.763 14.018,19.33 16.753,15.448 20.629,12.578 25.125,11.105 25.844,10.87 26.689,10.643 27.436,10.484 Z M 28.036,16.341 C 29.7,16.168 30.766,17.344 31.675,18.581 35.982,26.037 40.573,34.113 45.232,42.426 46.572,44.816 47.885,47.168 47.889,47.186 47.893,47.201 47.836,47.265 47.607,47.496 44.982,50.142 41.734,52.068 38.145,53.108 37.325,53.344 35.965,53.676 34.517,53.849 31.737,54.179 28.948,53.968 26.238,53.222 L 26.037,53.158 25.783,22.633 C 25.93,19.919 25.799,17.092 28.036,16.341 Z"/>
 <path style="fill:#ffffff;opacity:0.2" d="M 32.77 10.014 C 30.978 9.9528 29.177 10.111 27.436 10.484 C 26.689 10.643 25.844 10.87 25.125 11.105 C 20.629 12.578 16.753 15.448 14.018 19.33 C 13.008 20.763 12.156 22.347 11.518 23.975 C 10.457 26.679 9.963 29.537 10.018 32.398 C 10.085 29.873 10.581 27.364 11.518 24.975 C 12.156 23.347 13.008 21.763 14.018 20.33 C 16.753 16.448 20.629 13.578 25.125 12.105 C 25.844 11.87 26.689 11.643 27.436 11.484 C 29.758 10.986 32.185 10.869 34.555 11.146 C 37.995 11.548 41.326 12.777 44.217 14.709 C 47.075 16.618 49.422 19.135 51.113 22.102 C 51.761 23.238 52.314 24.45 52.756 25.707 C 53.064 26.587 53.344 27.606 53.537 28.531 C 53.786 29.725 53.932 30.928 53.98 32.129 C 53.989 30.596 53.855 29.057 53.537 27.531 C 53.344 26.606 53.064 25.587 52.756 24.707 C 52.314 23.45 51.761 22.238 51.113 21.102 C 49.422 18.135 47.075 15.618 44.217 13.709 C 41.326 11.777 37.995 10.548 34.555 10.146 C 33.962 10.077 33.367 10.034 32.77 10.014 z M 28.633 16.336 C 28.443 16.318 28.243 16.32 28.035 16.342 C 25.798 17.093 25.93 19.919 25.783 22.633 L 25.791 23.488 C 25.926 20.82 25.838 18.079 28.035 17.342 C 29.699 17.169 30.767 18.343 31.676 19.58 C 35.983 27.036 40.573 35.113 45.232 43.426 C 46.396 45.502 47.256 47.047 47.539 47.561 C 47.561 47.538 47.585 47.518 47.607 47.496 C 47.836 47.265 47.893 47.201 47.889 47.186 C 47.885 47.168 46.572 44.816 45.232 42.426 C 40.573 34.113 35.983 26.036 31.676 18.58 C 30.88 17.498 29.964 16.462 28.633 16.336 z"/>
</svg>
